X: 19017
T: International Schottische, The
R: barndance
M: 4/4
K: Gmajor
M:2/4
|:B/c/|db ca|Bg g/d/B/G/|Af/e/ d/c/B/A/|G/B/A/c/ B/d/c/e/|
db ca|Bg g/d/B/G/|Af/e/ d/c/B/A/|GB G:|
|:A/G/|F/G/A/B/ c/d/e/f/|gB B>g|fA A>e|ed BG|
F/G/A/B/ c/d/e/f/|gB/B/ B>g|f>e d/c/B/A/|GG/G/ G:|

